svg/furkot/nps/atv.svg

<svg viewBox="0 0 512 512" xmlns="http://www.w3.org/2000/svg"><path d="m403.278 161.641v-63.045h-5.801c-17.407 0-31.56 14.119-31.56 31.521 0 17.44 14.153 31.518 31.56 31.518zm-47.536-14.351-27.539-55.075c-6.144-11.293-18.026-18.872-31.831-18.872h-63.926c-5.997 0-10.754 4.798-10.754 10.793s4.757 10.753 10.754 10.753l63.93-.041c5.223 0 10.906 3.52 13.228 8.391l17.52 35.119zm126.937 58.866c8.322 2.396 14.511 10.095 14.511 19.183l-46.566.041c-61.262 0-111.039 49.816-111.039 111.079h-151.535c0-49.233-32.026-91.006-76.348-105.585l-83.507-27.465 13.848-21.154c4.871-7.386 13.421-12.261 22.937-12.261 2.201 0 4.182.153 5.993.538l186.071 57.704c2.282.658 4.644 1.083 7.193 1.083 8.391 0 15.704-4.253 20.079-10.791l42.314-61.109z"/><path d="m358.065 355.756c0-41.886 33.955-75.688 75.65-75.688 41.806 0 75.647 33.802 75.647 75.688 0 41.734-33.841 75.65-75.647 75.65-41.695 0-75.65-33.922-75.65-75.65zm75.65 28.273c15.702 0 28.38-12.684 28.38-28.273 0-15.703-12.683-28.312-28.38-28.312-15.471 0-28.159 12.609-28.159 28.312.005 15.585 12.688 28.273 28.159 28.273zm-432.01-36.397c0-45.871 37.238-83.194 83.229-83.194 46.064 0 83.154 37.323 83.154 83.194 0 45.987-37.09 83.268-83.154 83.268-45.984 0-83.229-37.281-83.229-83.268zm83.422 31.213c17.095 0 31.05-13.921 31.05-31.133 0-17.214-13.955-31.134-31.05-31.134-17.286 0-31.133 13.926-31.133 31.134 0 17.212 13.847 31.133 31.133 31.133z"/></svg>

<svg viewBox="0 0 512 512" xmlns="http://www.w3.org/2000/svg"><path d="M 403.278 161.641 L 403.278 98.596 L 397.477 98.596 C 380.07 98.596 365.917 112.715 365.917 130.117 C 365.917 147.557 380.07 161.635 397.477 161.635 L 403.278 161.641 L 403.278 161.641 Z M 355.742 147.29 L 328.203 92.215 C 322.059 80.922 310.177 73.343 296.372 73.343 L 232.446 73.343 C 226.449 73.343 221.692 78.141 221.692 84.136 C 221.692 90.131 226.449 94.889 232.446 94.889 L 296.376 94.848 C 301.599 94.848 307.282 98.368 309.604 103.239 L 327.124 138.358 L 355.742 147.29 Z M 482.679 206.156 C 491.001 208.552 497.19 216.251 497.19 225.339 L 450.624 225.38 C 389.362 225.38 339.585 275.196 339.585 336.459 L 188.05 336.459 C 188.05 287.226 156.024 245.453 111.702 230.874 L 28.195 203.409 L 42.043 182.255 C 46.914 174.869 55.464 169.994 64.98 169.994 C 67.181 169.994 69.162 170.147 70.973 170.532 L 257.044 228.236 C 259.326 228.894 261.688 229.319 264.237 229.319 C 272.628 229.319 279.941 225.066 284.316 218.528 L 326.63 157.419 L 482.679 206.156 Z"/><path d="M 358.065 355.756 C 358.065 313.87 392.02 280.068 433.715 280.068 C 475.521 280.068 509.362 313.87 509.362 355.756 C 509.362 397.49 475.521 431.406 433.715 431.406 C 392.02 431.406 358.065 397.484 358.065 355.756 Z M 433.715 384.029 C 449.417 384.029 462.095 371.345 462.095 355.756 C 462.095 340.053 449.412 327.444 433.715 327.444 C 418.244 327.444 405.556 340.053 405.556 355.756 C 405.561 371.341 418.244 384.029 433.715 384.029 Z M 1.705 347.632 C 1.705 301.761 38.943 264.438 84.934 264.438 C 130.998 264.438 168.088 301.761 168.088 347.632 C 168.088 393.619 130.998 430.9 84.934 430.9 C 38.95 430.9 1.705 393.619 1.705 347.632 Z M 85.127 378.845 C 102.222 378.845 116.177 364.924 116.177 347.712 C 116.177 330.498 102.222 316.578 85.127 316.578 C 67.841 316.578 53.994 330.504 53.994 347.712 C 53.994 364.924 67.841 378.845 85.127 378.845 Z"/></svg>
